X: 1131
T: Give Us a Drink of Water
R:slip jig
N:"Collected by F. O'Neill"
B:O'Neill's 1131
Z:Transcribed by Michael Hogan
M:9/8
L:1/8
K:G
D| GBd gdc BAG | (B<d)B cAA A2A-| GBd gdc BAG | (B<c)A BGG G2 :|
d | gfg efg afd | gfg efg a2d | gfg bag fed | efg afd g2d |
gfg efg afd | gfg efg a2a | bag agf gfd | efg afd g2 ||


